Dark-Grey-Flat-Collection/darkgrey-wrench2.svg

<svg xmlns="http://www.w3.org/2000/svg" viewBox="0 0 500 500" overflow="hidden" preserveAspectRatio="xMidYMid meet" id="eaf-540a-0"><defs><clipPath id="eaf-540a-1"><rect x="0" y="0" width="500" height="500"></rect></clipPath><style>#eaf-540a-0 * {animation: 3233ms linear infinite normal both running;offset-rotate:0deg}@keyframes eaf-540a-2{0%,100%{transform:translate(150.1377px,163.15px)}}@keyframes eaf-540a-3{0%{transform:rotate(0);animation-timing-function:ease-in-out}41.26%,100%{transform:rotate(61deg)}}@keyframes eaf-540a-4{0%,100%{transform:translate(-150.1377px,-163.15px)}}@keyframes eaf-540a-5{0%,100%{transform:none;offset-path:path("m149.8822 163.2801l0 0l0 0l81.1019 47.6031q58.8053 -20.0502 42.0693 -60.6029q-16.6645 -40.3795 -123.1712 12.9998l0 0")}}@keyframes eaf-540a-6{0%{offset-distance:0%}50.51%{offset-distance:0%;animation-timing-function:ease-in}61.86%{offset-distance:29.8628%}78.35%{offset-distance:56.8896%}96.91%,100%{offset-distance:100%}}@keyframes eaf-540a-7{0%{transform:rotate(0);animation-timing-function:ease-in-out}41.26%{transform:rotate(61deg)}60.84%{transform:rotate(61deg)}77.33%{transform:rotate(35deg)}96.91%,100%{transform:rotate(0)}}@keyframes eaf-540a-8{0%,100%{transform:translate(-149.8822px,-163.2801px)}}</style></defs><g clip-path="url('#eaf-540a-1')" style="isolation: isolate;"><g><g transform="matrix(4 0 0 4 -827.28 -2254.5264)"><path fill="#444444" d="m331.8 626.1c0 15.6 0 31.3 0 46.9c0 7.2 -5.4 13.7 -12.5 15.1c-1 0.2 -2.1 0.3 -3.2 0.3c-31.2 0 -62.4 0 -93.6 0c-7.6 0 -14.3 -5.9 -15.3 -13.5c-0.1 -0.7 -0.1 -1.4 -0.1 -2c0 -31.3 0 -62.5 0 -93.8c0 -7.2 5.4 -13.7 12.5 -15.1c1 -0.2 2.1 -0.3 3.2 -0.3c31.2 0 62.4 0 93.6 0c7.2 0 13.7 5.4 15.1 12.5c0.2 1 0.3 2.1 0.3 3.2c0 15.6 0 31.1 0 46.7z"></path></g><g transform="matrix(0.891 0.454 -0.454 0.891 80.9816 -16.9125)"><g style="filter: drop-shadow(rgb(115, 115, 115) 8px 8px 10px);"><ellipse fill="#e8e8e8" stroke="#a1a1a1" stroke-width="8" stroke-miterlimit="10" rx="131.1996" ry="131.1996" transform="matrix(0.891 -0.454 0.454 0.891 149.8486 163.2142)"></ellipse></g><g style="animation-name: eaf-540a-2, eaf-540a-3, eaf-540a-4; animation-composition: replace, add, add;"><path fill="#7ebfe2" stroke="#ffffff" stroke-width="14.4004" stroke-miterlimit="10" d="m227.8 114.5l-61.7 -41.5c-5.7 -3.8 -13.1 -4.4 -19.3 -1.4l-66.9 32.5c-6.3 3 -10.3 9.2 -10.9 16.1l-5.2 74.2c-0.4 6.9 2.8 13.6 8.5 17.4l61.7 41.5c5.7 3.8 13.1 4.4 19.4 1.4l67 -32.7c6.3 -3 10.3 -9.2 10.9 -16.1l5.2 -74.1c0.2 -6.8 -3 -13.4 -8.7 -17.3z"></path><path fill="#000000" stroke="#ffffff" stroke-width="8.2288" stroke-miterlimit="10" d="m138.1 204.7c-23.3 -6.7 -36.7 -31.2 -29.4 -54.5c6.9 -21.7 29.8 -34.4 51.8 -28.8c23.7 6.1 37.5 30.3 30.8 53.7c-6.3 22.8 -30.2 36.1 -53.2 29.6z"></path></g><g transform="translate(0 0)" style="animation-name: eaf-540a-5, eaf-540a-6, eaf-540a-7, eaf-540a-8; animation-composition: replace, add, add, add;"><path fill="#000000" stroke="#ffffff" stroke-width="17.5293" stroke-miterlimit="10" d="m73.2 261.6c-2.2 -12 11.9 -20.2 21.3 -12.4c27.7 23.1 69.3 58.9 85.3 70.3c16.1 11.4 44.5 16.8 65.7 4.4c7.6 -4.5 14.9 -9.3 21.7 -14.5c34.6 -26.3 58.5 -61.2 70.9 -103.8c7.7 -26.3 -0.4 -50.2 -22.7 -67.3c-15.6 -11.9 -78.1 -43.4 -105.2 -60.6c-4.7 -3 -4.2 -10.1 0.8 -12.4l0.1 -0.1c13.8 -6.4 30.7 -11.3 45.4 -9.6c30.1 3.5 60.7 8.7 89.1 19c72.3 26.1 94.3 60.3 94.4 137c0 18 -0.5 36.1 1.1 53.9c3.5 38.6 24.7 69 47.6 98.7c47.3 61.3 93.9 123.2 140.6 184.9l-146.5001 110.2c-42 -55.8 -84.8 -110.9 -124.8 -168.1c-20.6 -29.5 -47.1 -45.8 -80.1 -54.8c-11 -3 -22.2 -5.5 -33.4 -7.8c-89.5 -18.5 -141.5 -77.1 -169.5 -160c-0.8 -2.2 -1.4 -4.6 -1.8 -7z" transform="matrix(0.5 -0.866 0.866 0.5 -80.3293 218.4683)"></path><g transform="matrix(0.5 -0.866 0.866 0.5 -80.3293 218.4683)"><path fill="#ffffff" d="m592.6 564.4c-51.8 -68.3 -103.5 -136.5 -155.3 -204.8c-1.5 -2 -2.7 -4.2 -4.5 -5.9c-30.6 -29.6 -39.3 -65.6 -31.5 -106.5c0.6 -3.3 0.4 -6.9 -1.5 -11.1c1.4 48.5 -14.2 89.1 -55.6 119.2c9.9 7.7 17.8 13.8 25.7 19.9c0.6 -0.5 1.2 -1 1.7 -1.5c-2.4 -3.7 -4.7 -7.4 -7.1 -11.1c0.5 -0.4 1 -0.9 1.5 -1.3c4.7 3 9.4 6.1 14.1 9.1c0.4 -0.4 0.8 -0.9 1.3 -1.3c-2.9 -3.8 -5.7 -7.6 -8.6 -11.4c0.4 -0.5 0.8 -1 1.2 -1.5c4.2 2.5 8.5 5 15.1 9c-3.9 -6.2 -6.4 -10.1 -10.8 -17.1c7 4.3 11.1 6.8 17 10.5c-3 -5.5 -5.1 -9.4 -8.5 -15.7c6.9 4.3 11.6 7.2 19.4 12c-4.1 -6.7 -6.4 -10.5 -10.7 -17.5c7.4 4.8 11.4 7.4 18.5 12.1c-4.1 -6.7 -6.4 -10.4 -8.6 -14c0.7 -0.7 1.5 -1.4 2.2 -2.1c5.3 5.5 11.2 10.5 15.7 16.6c51.7 69 103.1 138.1 154.7 207.2c3 4 6.4 7.5 9.7 11.3c1.7 -1.7001 3.3 -2.9001 4.9 -4.1z"></path><path fill="#ffffff" d="m513.7 623.8c-24.8 -33.1 -49.4 -66.2 -74.3 -99.2c-22.8 -30.2 -46.6 -59.7 -68.5 -90.6c-14.4 -20.3 -32.8 -32.8 -56.5 -38.5c-3.7 -0.9 -7.2 -2.5 -12.8 -4.5c9.9 -7.4 18.1 -13.6 26.3 -19.8c-36.4 27.4 -75 11.4 -113.6 8.8c4.8 1.3 9.6 2.7 14.5 3.8c27.7 6.1 55.5 11.8 83.1 18.4c21 5 37.2 16.5 50.3 34.6c43.7 60.6 88.6 120.3 133 180.4c3.2 4.4 5.9 9.1 8.9 13.7c3.3 -2.4 6.5 -4.8 9.6 -7.1z"></path><path fill="#ffffff" d="m578.3 575.2c-36.4 -48.4 -72.8 -96.8 -109.1 -145.1c-0.8 0.6 -1.6 1.2 -2.4 1.8c36.4 48.4 72.8 96.8 109.1 145.1c0.8 -0.6 1.6 -1.2 2.4 -1.8z"></path><path fill="#ffffff" d="m333.9 276.6c34.9 -25.5 55.4 -59.9 63.6 -101.4c1.2 -6.2 -2.1 -16.3 -6.9 -20.2c-21 -17.3 -43.4 -32.9 -67.1 -46.8c16.8 13.8 33.3 27.9 50.5 41.2c12.8 9.9 16.8 20.7 12.4 37.3c-9.3 35.1 -25.9 65.3 -52.5 89.9z"></path><path fill="#ffffff" stroke="#eb008b" stroke-width="2.9899" stroke-miterlimit="10" d="m455.2 353.6"></path><path fill="#ffffff" stroke="#eb008b" stroke-width="2.9899" stroke-miterlimit="10" d="m351.2 452.4" opacity="0.51"></path><path fill="#ffffff" stroke="#eb008b" stroke-width="2.9899" stroke-miterlimit="10" d="m326.9 433.4" opacity="0.51"></path><path fill="#ffffff" stroke="#eb008b" stroke-width="2.9899" stroke-miterlimit="10" d="m448.8 385.3" opacity="0.53"></path><path fill="#ffffff" stroke="#eb008b" stroke-width="2.9899" stroke-miterlimit="10" d="m398 276.6" opacity="0.53"></path><path fill="#ffffff" stroke="#eb008b" stroke-width="2.9899" stroke-miterlimit="10" d="m294.4 394.8" opacity="0.53"></path><path fill="#ffffff" stroke="#eb008b" stroke-width="2.9899" stroke-miterlimit="10" d="m387.8 458.5" opacity="0.53"></path><path fill="#ffffff" stroke="#eb008b" stroke-width="2.9899" stroke-miterlimit="10" d="m449 384.8" opacity="0.53"></path><path fill="#ffffff" stroke="#eb008b" stroke-width="2.9899" stroke-miterlimit="10" d="m397.8 276.3" opacity="0.53"></path></g></g></g></g></g></svg>

<?xml version="1.0" encoding="utf-8"?>
<svg xmlns="http://www.w3.org/2000/svg" viewBox="0 0 500 500" overflow="hidden" preserveAspectRatio="xMidYMid meet" id="eaf-540a-0">
  <defs>
    <clipPath id="eaf-540a-1">
      <rect x="0" y="0" width="500" height="500"/>
    </clipPath>
    <style>#eaf-540a-0 * {animation: 3233ms linear infinite normal both running;offset-rotate:0deg}@keyframes eaf-540a-2{0%,100%{transform:translate(150.1377px,163.15px)}}@keyframes eaf-540a-3{0%{transform:rotate(0);animation-timing-function:ease-in-out}41.26%,100%{transform:rotate(61deg)}}@keyframes eaf-540a-4{0%,100%{transform:translate(-150.1377px,-163.15px)}}@keyframes eaf-540a-5{0%,100%{transform:none;offset-path:path("m149.8822 163.2801l0 0l0 0l81.1019 47.6031q58.8053 -20.0502 42.0693 -60.6029q-16.6645 -40.3795 -123.1712 12.9998l0 0")}}@keyframes eaf-540a-6{0%{offset-distance:0%}50.51%{offset-distance:0%;animation-timing-function:ease-in}61.86%{offset-distance:29.8628%}78.35%{offset-distance:56.8896%}96.91%,100%{offset-distance:100%}}@keyframes eaf-540a-7{0%{transform:rotate(0);animation-timing-function:ease-in-out}41.26%{transform:rotate(61deg)}60.84%{transform:rotate(61deg)}77.33%{transform:rotate(35deg)}96.91%,100%{transform:rotate(0)}}@keyframes eaf-540a-8{0%,100%{transform:translate(-149.8822px,-163.2801px)}}</style>
  </defs>
  <g clip-path="url('#eaf-540a-1')" style="isolation: isolate;">
    <g>
      <g transform="matrix(4 0 0 4 -827.28 -2254.5264)">
        <path fill="#444444" d="m331.8 626.1c0 15.6 0 31.3 0 46.9c0 7.2 -5.4 13.7 -12.5 15.1c-1 0.2 -2.1 0.3 -3.2 0.3c-31.2 0 -62.4 0 -93.6 0c-7.6 0 -14.3 -5.9 -15.3 -13.5c-0.1 -0.7 -0.1 -1.4 -0.1 -2c0 -31.3 0 -62.5 0 -93.8c0 -7.2 5.4 -13.7 12.5 -15.1c1 -0.2 2.1 -0.3 3.2 -0.3c31.2 0 62.4 0 93.6 0c7.2 0 13.7 5.4 15.1 12.5c0.2 1 0.3 2.1 0.3 3.2c0 15.6 0 31.1 0 46.7z"/>
      </g>
      <g transform="matrix(0.891 0.454 -0.454 0.891 80.9816 -16.9125)">
        <g style="filter: drop-shadow(rgb(115, 115, 115) 8px 8px 10px);">
          <ellipse stroke-width="8" stroke-miterlimit="10" rx="131.1996" ry="131.1996" transform="matrix(0.891 -0.454 0.454 0.891 149.8486 163.2142)" style="stroke: rgb(0, 0, 0); fill: rgb(175, 175, 175);"/>
        </g>
        <g style="animation-name: eaf-540a-2, eaf-540a-3, eaf-540a-4; animation-composition: replace, add, add;">
          <path stroke-width="14.4004" stroke-miterlimit="10" d="m227.8 114.5l-61.7 -41.5c-5.7 -3.8 -13.1 -4.4 -19.3 -1.4l-66.9 32.5c-6.3 3 -10.3 9.2 -10.9 16.1l-5.2 74.2c-0.4 6.9 2.8 13.6 8.5 17.4l61.7 41.5c5.7 3.8 13.1 4.4 19.4 1.4l67 -32.7c6.3 -3 10.3 -9.2 10.9 -16.1l5.2 -74.1c0.2 -6.8 -3 -13.4 -8.7 -17.3z" style="stroke: rgb(0, 0, 0); fill: rgb(238, 185, 36);"/>
          <path fill="#000000" stroke="#ffffff" stroke-width="8.2288" stroke-miterlimit="10" d="m138.1 204.7c-23.3 -6.7 -36.7 -31.2 -29.4 -54.5c6.9 -21.7 29.8 -34.4 51.8 -28.8c23.7 6.1 37.5 30.3 30.8 53.7c-6.3 22.8 -30.2 36.1 -53.2 29.6z"/>
        </g>
        <g transform="translate(0 0)" style="animation-name: eaf-540a-5, eaf-540a-6, eaf-540a-7, eaf-540a-8; animation-composition: replace, add, add, add;">
          <path stroke-width="17.5293" stroke-miterlimit="10" d="m73.2 261.6c-2.2 -12 11.9 -20.2 21.3 -12.4c27.7 23.1 69.3 58.9 85.3 70.3c16.1 11.4 44.5 16.8 65.7 4.4c7.6 -4.5 14.9 -9.3 21.7 -14.5c34.6 -26.3 58.5 -61.2 70.9 -103.8c7.7 -26.3 -0.4 -50.2 -22.7 -67.3c-15.6 -11.9 -78.1 -43.4 -105.2 -60.6c-4.7 -3 -4.2 -10.1 0.8 -12.4l0.1 -0.1c13.8 -6.4 30.7 -11.3 45.4 -9.6c30.1 3.5 60.7 8.7 89.1 19c72.3 26.1 94.3 60.3 94.4 137c0 18 -0.5 36.1 1.1 53.9c3.5 38.6 24.7 69 47.6 98.7c47.3 61.3 93.9 123.2 140.6 184.9l-146.5001 110.2c-42 -55.8 -84.8 -110.9 -124.8 -168.1c-20.6 -29.5 -47.1 -45.8 -80.1 -54.8c-11 -3 -22.2 -5.5 -33.4 -7.8c-89.5 -18.5 -141.5 -77.1 -169.5 -160c-0.8 -2.2 -1.4 -4.6 -1.8 -7z" transform="matrix(0.5 -0.866 0.866 0.5 -80.3293 218.4683)" style="fill: rgb(255, 253, 253); stroke: rgb(0, 0, 0);"/>
          <g transform="matrix(0.5 -0.866 0.866 0.5 -80.3293 218.4683)">
            <path d="M 592.6 564.4 C 540.8 496.1 489.1 427.9 437.3 359.6 C 435.8 357.6 434.6 355.4 432.8 353.7 C 402.2 324.1 393.5 288.1 401.3 247.2 C 401.9 243.9 401.7 240.3 399.8 236.1 C 401.2 284.6 385.6 325.2 344.2 355.3 C 354.1 363 362 369.1 369.9 375.2 C 370.5 374.7 371.1 374.2 371.6 373.7 C 369.2 370 366.9 366.3 364.5 362.6 C 365 362.2 365.5 361.7 366 361.3 C 370.7 364.3 375.4 367.4 380.1 370.4 C 380.5 370 380.9 369.5 381.4 369.1 C 378.5 365.3 375.7 361.5 372.8 357.7 C 373.2 357.2 373.6 356.7 374 356.2 C 378.2 358.7 382.5 361.2 389.1 365.2 C 385.2 359 382.7 355.1 378.3 348.1 C 385.3 352.4 389.4 354.9 395.3 358.6 C 392.3 353.1 390.2 349.2 386.8 342.9 C 393.7 347.2 398.4 350.1 406.2 354.9 C 402.1 348.2 399.8 344.4 395.5 337.4 C 402.9 342.2 406.9 344.8 414 349.5 C 409.9 342.8 407.6 339.1 405.4 335.5 C 406.1 334.8 406.9 334.1 407.6 333.4 C 412.9 338.9 418.8 343.9 423.3 350 C 423.3 350 423.3 350 423.3 350 C 475 419 526.4 488.1 578 557.2 C 581 561.2 584.4 564.7 587.7 568.5 C 589.4 566.8 591 565.6 592.6 564.4 L 592.6 564.4 Z" style=""/>
            <path d="m513.7 623.8c-24.8 -33.1 -49.4 -66.2 -74.3 -99.2c-22.8 -30.2 -46.6 -59.7 -68.5 -90.6c-14.4 -20.3 -32.8 -32.8 -56.5 -38.5c-3.7 -0.9 -7.2 -2.5 -12.8 -4.5c9.9 -7.4 18.1 -13.6 26.3 -19.8c-36.4 27.4 -75 11.4 -113.6 8.8c4.8 1.3 9.6 2.7 14.5 3.8c27.7 6.1 55.5 11.8 83.1 18.4c21 5 37.2 16.5 50.3 34.6c43.7 60.6 88.6 120.3 133 180.4c3.2 4.4 5.9 9.1 8.9 13.7c3.3 -2.4 6.5 -4.8 9.6 -7.1z" style=""/>
            <path fill="#ffffff" d="m578.3 575.2c-36.4 -48.4 -72.8 -96.8 -109.1 -145.1c-0.8 0.6 -1.6 1.2 -2.4 1.8c36.4 48.4 72.8 96.8 109.1 145.1c0.8 -0.6 1.6 -1.2 2.4 -1.8z"/>
            <path d="m333.9 276.6c34.9 -25.5 55.4 -59.9 63.6 -101.4c1.2 -6.2 -2.1 -16.3 -6.9 -20.2c-21 -17.3 -43.4 -32.9 -67.1 -46.8c16.8 13.8 33.3 27.9 50.5 41.2c12.8 9.9 16.8 20.7 12.4 37.3c-9.3 35.1 -25.9 65.3 -52.5 89.9z" style=""/>
            <path fill="#ffffff" stroke="#eb008b" stroke-width="2.9899" stroke-miterlimit="10" d="m455.2 353.6"/>
            <path fill="#ffffff" stroke="#eb008b" stroke-width="2.9899" stroke-miterlimit="10" d="m351.2 452.4" opacity="0.51"/>
            <path fill="#ffffff" stroke="#eb008b" stroke-width="2.9899" stroke-miterlimit="10" d="m326.9 433.4" opacity="0.51"/>
            <path fill="#ffffff" stroke="#eb008b" stroke-width="2.9899" stroke-miterlimit="10" d="m448.8 385.3" opacity="0.53"/>
            <path fill="#ffffff" stroke="#eb008b" stroke-width="2.9899" stroke-miterlimit="10" d="m398 276.6" opacity="0.53"/>
            <path fill="#ffffff" stroke="#eb008b" stroke-width="2.9899" stroke-miterlimit="10" d="m294.4 394.8" opacity="0.53"/>
            <path fill="#ffffff" stroke="#eb008b" stroke-width="2.9899" stroke-miterlimit="10" d="m387.8 458.5" opacity="0.53"/>
            <path fill="#ffffff" stroke="#eb008b" stroke-width="2.9899" stroke-miterlimit="10" d="m449 384.8" opacity="0.53"/>
            <path fill="#ffffff" stroke="#eb008b" stroke-width="2.9899" stroke-miterlimit="10" d="m397.8 276.3" opacity="0.53"/>
          </g>
        </g>
      </g>
    </g>
  </g>
</svg>
